<?xml version="1.0" encoding="UTF-8"?>
<map version="1.10" tiledversion="1.11.2" orientation="orthogonal" renderorder="right-down" width="30" height="20" tilewidth="16" tileheight="16" infinite="0" nextlayerid="8" nextobjectid="87">
 <editorsettings>
  <export target="map.json" format="json"/>
 </editorsettings>
 <tileset firstgid="1" source="../spritesheet.tsx"/>
 <tileset firstgid="1" source="C:/Users/Admin/spritesheet.tsx"/>
 <layer id="2" name="ground" width="30" height="20">
  <data encoding="csv">
0,0,0,0,0,0,0,0,0,0,0,0,0,0,0,0,0,0,0,0,0,0,0,0,0,0,0,0,0,0,
0,0,0,0,0,0,0,0,0,0,0,0,0,0,0,0,0,0,0,0,0,0,0,0,0,0,0,0,0,0,
0,0,0,0,0,0,0,0,0,0,0,0,0,0,0,0,0,0,0,0,0,0,0,0,0,0,0,0,0,0,
0,41,41,41,41,41,41,41,41,41,41,41,41,41,41,41,41,41,41,41,41,41,41,0,0,0,0,0,0,0,
0,41,41,41,41,41,41,41,41,41,41,41,41,41,41,41,41,41,41,41,41,41,41,0,0,0,0,0,0,0,
0,41,41,27,0,26,28,28,28,0,29,41,41,41,0,0,0,0,0,0,41,41,41,0,0,0,0,0,0,0,
0,41,41,67,67,67,67,67,67,67,67,41,41,41,67,302,303,303,304,67,41,41,41,0,0,0,0,0,0,0,
0,41,41,67,67,302,303,303,304,67,67,41,41,41,67,341,342,342,343,67,41,41,41,0,0,0,0,0,0,0,
0,66,67,67,67,341,342,342,343,67,67,67,67,67,67,341,342,342,343,67,41,41,41,0,0,0,0,0,0,0,
0,41,41,67,67,341,342,342,343,67,67,67,67,67,67,380,381,381,382,67,41,41,41,0,0,0,0,0,0,0,
0,41,41,67,67,341,342,342,343,67,67,41,41,41,67,67,67,67,67,67,41,41,41,0,0,0,0,0,0,0,
0,41,41,67,67,380,381,381,382,67,67,41,41,41,67,67,67,67,67,67,41,41,41,0,0,0,0,0,0,0,
0,41,41,41,41,41,41,41,41,41,41,41,41,41,41,41,41,41,41,41,41,41,41,0,0,0,0,0,0,0,
0,41,41,41,41,41,41,41,41,41,41,41,41,41,41,41,41,41,41,41,41,41,41,0,0,0,0,0,0,0,
0,41,41,41,41,41,41,41,41,41,41,41,41,41,41,41,41,41,41,41,41,41,41,0,0,0,0,0,0,0,
0,0,0,0,0,0,0,0,0,0,0,0,0,0,0,0,0,0,0,0,0,0,0,0,0,0,0,0,0,0,
0,0,0,0,0,0,0,0,0,0,0,0,0,0,0,0,0,0,0,0,0,0,0,0,0,0,0,0,0,0,
0,0,0,0,0,0,0,0,0,0,0,0,0,0,0,0,0,0,0,0,0,0,0,0,0,0,0,0,0,0,
0,0,0,0,0,0,0,0,0,0,0,0,0,0,0,0,0,0,0,0,0,0,0,0,0,0,0,0,0,0,
0,0,0,0,0,0,0,0,0,0,0,0,0,0,0,0,0,0,0,0,0,0,0,0,0,0,0,0,0,0
</data>
 </layer>
 <layer id="3" name="props" width="30" height="20">
  <data encoding="csv">
0,0,0,0,0,0,0,0,0,0,0,0,0,0,0,0,0,0,0,0,0,0,0,0,0,0,0,0,0,0,
0,0,0,0,0,0,0,0,0,0,0,0,0,0,0,0,0,0,0,0,0,0,0,0,0,0,0,0,0,0,
0,0,0,0,0,0,0,0,0,0,0,0,0,0,0,0,0,0,0,0,0,0,0,0,0,0,0,0,0,0,
0,124,124,0,0,123,0,123,0,0,0,124,0,124,0,0,123,0,123,0,124,0,0,0,0,0,0,0,0,0,
0,163,163,0,0,162,0,162,0,0,0,163,0,163,0,0,162,0,162,0,163,0,0,0,0,0,0,0,0,0,
0,161,161,0,73,26,0,0,26,75,0,161,161,161,27,26,28,28,26,29,161,123,0,0,0,0,0,0,0,0,
0,84,85,0,0,146,227,228,0,0,0,279,280,279,0,224,147,148,225,0,161,162,0,0,0,0,0,0,0,0,
0,85,84,0,0,0,265,266,0,0,0,279,280,279,0,0,0,0,0,0,161,0,0,0,0,0,0,0,0,0,
0,0,0,0,0,0,0,0,0,0,0,0,0,0,0,0,0,0,0,0,161,0,0,0,0,0,0,0,0,0,
0,84,85,0,0,0,152,0,0,0,0,0,0,0,0,0,0,0,0,0,161,0,0,0,0,0,0,0,0,0,
0,85,84,0,0,0,191,0,0,0,229,279,280,279,350,0,0,0,0,0,161,123,0,0,0,0,0,0,0,0,
0,161,161,0,0,0,0,0,0,0,268,279,280,279,389,0,0,0,386,387,161,162,0,0,0,0,0,0,0,0,
0,41,41,91,92,91,92,91,92,91,92,161,161,161,286,287,286,287,286,287,0,0,0,0,0,0,0,0,0,0,
0,124,124,0,123,0,0,0,123,0,0,124,0,124,0,0,0,0,123,0,124,0,0,0,0,0,0,0,0,0,
0,163,163,0,162,0,0,0,162,0,0,163,0,163,0,0,0,0,162,0,163,0,0,0,0,0,0,0,0,0,
0,0,0,0,0,0,0,0,0,0,0,0,0,0,0,0,0,0,0,0,0,0,0,0,0,0,0,0,0,0,
0,0,0,0,0,0,0,0,0,0,0,0,0,0,0,0,0,0,0,0,0,0,0,0,0,0,0,0,0,0,
0,0,0,0,0,0,0,0,0,0,0,0,0,0,0,0,0,0,0,0,0,0,0,0,0,0,0,0,0,0,
0,0,0,0,0,0,0,0,0,0,0,0,0,0,0,0,0,0,0,0,0,0,0,0,0,0,0,0,0,0,
0,0,0,0,0,0,0,0,0,0,0,0,0,0,0,0,0,0,0,0,0,0,0,0,0,0,0,0,0,0
</data>
 </layer>
 <objectgroup id="6" name="boundaries" visible="0">
  <object id="45" name="wall" x="48.5" y="80" width="127.25" height="16"/>
  <object id="47" name="wall" x="31.7955" y="144.909" width="15.4545" height="46.9773"/>
  <object id="48" name="wall" x="48.0682" y="192" width="128" height="16"/>
  <object id="49" name="wall" x="176" y="176.25" width="16" height="15.75"/>
  <object id="50" name="wall" x="176.114" y="160" width="48.0682" height="16"/>
  <object id="51" name="wall" x="208" y="176.25" width="16" height="16"/>
  <object id="52" name="wall" x="224" y="192" width="112.25" height="16"/>
  <object id="53" name="wall" x="336" y="96.5" width="16" height="95.5"/>
  <object id="54" name="wall" x="223.636" y="80" width="112.364" height="16"/>
  <object id="55" name="wall" x="208" y="96" width="16" height="15.75"/>
  <object id="56" name="wall" x="176" y="112" width="48.25" height="16"/>
  <object id="57" name="wall" x="176" y="96" width="16" height="16"/>
  <object id="67" name="sofa-table" x="102.409" y="104.477" width="19.5" height="20.1818"/>
  <object id="68" name="tv" x="97.5909" y="151.455" width="12.3864" height="20.2273"/>
  <object id="69" name="lamp" x="84.8636" y="105.409" width="6.54545" height="9.47727"/>
  <object id="70" name="pc" x="161.318" y="168.409" width="11" height="21.3864"/>
  <object id="71" name="library" x="226.977" y="162.409" width="10.3636" height="22.7273"/>
  <object id="72" name="nightstand1" x="241.75" y="96.6818" width="11.8182" height="14.4318"/>
  <object id="73" name="bed" x="258.614" y="95.9545" width="26.7273" height="15.5"/>
  <object id="74" name="nightstand2" x="289.432" y="96.8864" width="12.1818" height="13.9545"/>
  <object id="79" name="resume" x="289.364" y="175.477" width="13.2727" height="13.75"/>
  <object id="80" name="projects" x="303.795" y="175.659" width="12.7273" height="13.5"/>
  <object id="81" name="artwork" x="144.523" y="80.8636" width="13.1136" height="19.4318"/>
  <object id="82" name="degrees" x="66.3636" y="81.6136" width="11.2727" height="18.4545"/>
  <object id="84" name="exit" x="15.2045" y="128.295" width="16.5455" height="16"/>
  <object id="86" name="wall" x="32.1818" y="95.5455" width="15.6364" height="32.5"/>
 </objectgroup>
 <objectgroup id="7" name="spawnpoint" visible="0">
  <object id="77" name="player" x="72.3636" y="139.091">
   <point/>
  </object>
 </objectgroup>
</map>
